X: 42197
T: Wattentaler, The
R: mazurka
M: 3/4
K: Gmajor
|:g ag|g2 c’g ec|B2 df ba|g2 bg fB|c2 eg c’a|
g2 c’g ec|B2 df ba|g2 bg fB|c2 c:|
|:c’ ba|g2 eg eg|g2 fg ba|g2 fg fg|g2 eg c’a|
g2 eg eg|g2 fg ba|g2 ^fg ag|c2 c:|

